img/google-play.svg

<svg width="26" height="26" viewBox="0 0 26 26" fill="none" xmlns="http://www.w3.org/2000/svg">
<g clip-path="url(#clip0_2_161)">
<path d="M18.4247 13.0002L2.41128 0.577612C1.79809 1.05714 1.38504 1.80205 1.38504 2.69016L1.38504 23.3104C1.38504 24.1985 1.79809 24.9433 2.41128 25.4222L18.4247 13.0002Z" fill="#9DC6FB"/>
<path d="M23.2717 10.674L19.397 8.4368L16.0008 8.86148L14.8344 13.0001L15.4268 16.9624L19.397 17.5627L23.2717 15.3262C25.0626 14.2923 25.0626 11.7079 23.2717 10.674Z" fill="#FFE07D"/>
<path d="M19.3967 8.43682L5.41401 0.363967C4.39229 -0.225553 3.22539 -0.0586338 2.41147 0.577503L14.8341 13.0001L19.3967 8.43682Z" fill="#DD5790"/>
<path d="M19.3967 17.5629L14.8341 13.0002L2.41147 25.4222C3.22539 26.059 4.39229 26.2259 5.41401 25.6364L19.3967 17.5629Z" fill="#95D6A4"/>
<path d="M4.41247 2.69C4.41247 2.50952 4.42922 2.33534 4.46162 2.16792L2.41143 0.577549C1.7983 1.05677 1.38504 1.80168 1.38504 2.69L1.38504 23.3102C1.38504 24.1979 1.79835 24.9429 2.41143 25.4221L4.46162 23.8318C4.42917 23.6644 4.41247 23.4901 4.41247 23.3102L4.41247 2.69Z" fill="#80B4FB"/>
<path d="M5.59217 0.466156L5.41429 0.363628C4.39257 -0.225435 3.22546 -0.0585675 2.41144 0.57757L4.41456 2.58069C4.447 1.74051 4.85087 1.03689 5.43836 0.57757H5.43886C5.48858 0.538875 5.53987 0.501245 5.59217 0.466156Z" fill="#DA387D"/>
<path d="M5.4389 25.4221L5.4394 25.4211L5.43834 25.4221C4.85034 24.9628 4.44698 24.2586 4.41454 23.419L2.41147 25.4221C3.22544 26.0588 4.3926 26.2256 5.41427 25.6361L5.59215 25.5335C5.53985 25.4985 5.48856 25.4608 5.4389 25.4221Z" fill="#78C2A4"/>
</g>
<defs>
<clipPath id="clip0_2_161">
<rect width="26" height="26" fill="white" transform="matrix(1 0 0 -1 0 26)"/>
</clipPath>
</defs>
</svg>

<svg xmlns="http://www.w3.org/2000/svg" width="26" height="26" fill="none" xmlns:v="https://vecta.io/nano"><g clip-path="url(#A)"><path d="M18.425 13L2.411.578A2.65 2.65 0 0 0 1.385 2.69v20.62a2.65 2.65 0 0 0 1.026 2.112L18.425 13z" fill="#9dc6fb"/><path d="M23.272 10.674l-3.875-2.237-3.396.425L14.834 13l.592 3.962 3.97.6 3.875-2.236a2.69 2.69 0 0 0 0-4.652z" fill="#ffe07d"/><path d="M19.397 8.437L5.414.364a2.67 2.67 0 0 0-3.003.214L14.834 13l4.563-4.563z" fill="#dd5790"/><path d="M19.397 17.563L14.834 13 2.411 25.422a2.67 2.67 0 0 0 3.003.214l13.983-8.073z" fill="#95d6a4"/><path d="M4.412 2.69c0-.18.017-.355.049-.522L2.411.578A2.65 2.65 0 0 0 1.385 2.69v20.62a2.65 2.65 0 0 0 1.026 2.112l2.05-1.59a2.74 2.74 0 0 1-.049-.522V2.69z" fill="#80b4fb"/><path d="M5.592.466L5.414.364C4.393-.225 3.225-.059 2.411.578l2.003 2.003A2.65 2.65 0 0 1 5.438.578h0l.153-.111z" fill="#da387d"/><path d="M5.439 25.422v-.001l-.001.001a2.65 2.65 0 0 1-1.024-2.003l-2.003 2.003a2.67 2.67 0 0 0 3.003.214l.178-.103-.153-.111z" fill="#78c2a4"/></g><defs><clipPath id="A"><path fill="#fff" transform="matrix(1 0 0 -1 0 26)" d="M0 0h26v26H0z"/></clipPath></defs></svg>
